public/images/weather/snowy-2.svg

<svg preserveAspectRatio="none" width="100%" height="100%" overflow="visible" style="display: block;" viewBox="0 0 103.482 45.4167" fill="none" xmlns="http://www.w3.org/2000/svg">
<path id="Vector" d="M18.5585 17.4097C18.3578 17.062 18.0271 16.8083 17.6393 16.7044C17.2515 16.6005 16.8383 16.6549 16.4906 16.8556L10.8983 20.0863V13.625C10.8983 13.2235 10.7388 12.8384 10.4548 12.5545C10.1709 12.2706 9.78587 12.1111 9.38436 12.1111C8.98286 12.1111 8.59779 12.2706 8.31388 12.5545C8.02997 12.8384 7.87048 13.2235 7.87048 13.625V20.0893L2.27212 16.8587C1.92401 16.6579 1.51041 16.6037 1.1223 16.7079C0.7342 16.8121 0.403383 17.0662 0.202629 17.4143C0.00187483 17.7624 -0.0523717 18.176 0.051823 18.5641C0.156018 18.9522 0.410119 19.283 0.758226 19.4838L6.35356 22.7083L0.758226 25.939C0.585861 26.0384 0.434762 26.1708 0.313557 26.3286C0.192352 26.4864 0.103415 26.6665 0.051823 26.8587C0.000231014 27.0508 -0.0130052 27.2513 0.0128702 27.4486C0.0387455 27.6458 0.103226 27.8361 0.202629 28.0085C0.302032 28.1808 0.434412 28.3319 0.59221 28.4531C0.750008 28.5743 0.930135 28.6633 1.1223 28.7149C1.31447 28.7665 1.51492 28.7797 1.71221 28.7538C1.90949 28.7279 2.09975 28.6635 2.27212 28.5641L7.87048 25.3304V31.7917C7.87048 32.1932 8.02997 32.5782 8.31388 32.8622C8.59779 33.1461 8.98286 33.3056 9.38436 33.3056C9.78587 33.3056 10.1709 33.1461 10.4548 32.8622C10.7388 32.5782 10.8983 32.1932 10.8983 31.7917V25.3334L16.4936 28.5641C16.666 28.6635 16.8562 28.7279 17.0535 28.7538C17.2508 28.7797 17.4512 28.7665 17.6434 28.7149C17.8356 28.6633 18.0157 28.5743 18.1735 28.4531C18.3313 28.3319 18.4637 28.1808 18.5631 28.0085C18.6625 27.8361 18.727 27.6458 18.7528 27.4486C18.7787 27.2513 18.7655 27.0508 18.7139 26.8587C18.6623 26.6665 18.5733 26.4864 18.4521 26.3286C18.3309 26.1708 18.1798 26.0384 18.0075 25.939L12.4121 22.7083L18.0075 19.4777C18.3547 19.2764 18.6077 18.9456 18.7111 18.5578C18.8144 18.17 18.7595 17.7571 18.5585 17.4097ZM48.8363 29.5208C48.6355 29.1731 48.3049 28.9194 47.9171 28.8155C47.5293 28.7116 47.116 28.766 46.7683 28.9668L41.176 32.1974V25.7361C41.176 25.3346 41.0165 24.9495 40.7326 24.6656C40.4487 24.3817 40.0637 24.2222 39.6621 24.2222C39.2606 24.2222 38.8756 24.3817 38.5917 24.6656C38.3078 24.9495 38.1483 25.3346 38.1483 25.7361V32.2004L32.5499 28.9698C32.2018 28.769 31.7882 28.7148 31.4001 28.819C31.012 28.9232 30.6812 29.1773 30.4804 29.5254C30.2797 29.8735 30.2254 30.2871 30.3296 30.6752C30.4338 31.0633 30.6879 31.3941 31.036 31.5949L36.6313 34.8255L31.036 38.0561C30.8636 38.1555 30.7125 38.2879 30.5913 38.4457C30.4701 38.6035 30.3812 38.7836 30.3296 38.9758C30.2254 39.3639 30.2797 39.7775 30.4804 40.1256C30.6812 40.4737 31.012 40.7278 31.4001 40.832C31.7882 40.9362 32.2018 40.882 32.5499 40.6812L38.1483 37.4415V43.9028C38.1483 44.3043 38.3078 44.6894 38.5917 44.9733C38.8756 45.2572 39.2606 45.4167 39.6621 45.4167C40.0637 45.4167 40.4487 45.2572 40.7326 44.9733C41.0165 44.6894 41.176 44.3043 41.176 43.9028V37.4445L46.7714 40.6752C46.9437 40.7746 47.134 40.8391 47.3313 40.8649C47.5286 40.8908 47.729 40.8776 47.9212 40.826C48.1133 40.7744 48.2935 40.6854 48.4513 40.5642C48.6091 40.443 48.7414 40.2919 48.8408 40.1196C48.9402 39.9472 49.0047 39.757 49.0306 39.5597C49.0565 39.3624 49.0432 39.1619 48.9917 38.9698C48.9401 38.7776 48.8511 38.5975 48.7299 38.4397C48.6087 38.2819 48.4576 38.1495 48.2853 38.0501L42.6899 34.8194L48.2853 31.5888C48.6324 31.3875 48.8855 31.0567 48.9888 30.6689C49.0922 30.2811 49.0373 29.8682 48.8363 29.5208ZM32.0927 19.6806C32.0927 20.0821 32.2522 20.4671 32.5361 20.751C32.82 21.0349 33.2051 21.1944 33.6066 21.1944C34.0081 21.1944 34.3932 21.0349 34.6771 20.751C34.961 20.4671 35.1205 20.0821 35.1205 19.6806V13.2223L40.7158 16.4529C40.8882 16.5523 41.0784 16.6168 41.2757 16.6427C41.473 16.6686 41.6734 16.6553 41.8656 16.6037C42.0578 16.5522 42.2379 16.4632 42.3957 16.342C42.5535 16.2208 42.6859 16.0697 42.7853 15.8973C42.8847 15.725 42.9492 15.5347 42.9751 15.3374C43.0009 15.1402 42.9877 14.9397 42.9361 14.7475C42.8845 14.5554 42.7956 14.3752 42.6744 14.2174C42.5532 14.0596 42.4021 13.9273 42.2297 13.8279L36.6344 10.5972L42.2297 7.36659C42.5575 7.15591 42.7917 6.82715 42.8837 6.44845C42.9757 6.06976 42.9184 5.6702 42.7237 5.33262C42.529 4.99503 42.2119 4.74532 41.838 4.63526C41.4642 4.52521 41.0624 4.56325 40.7158 4.7415L35.1205 7.97517V1.51389C35.1205 1.11238 34.961 0.727316 34.6771 0.443407C34.3932 0.159497 34.0081 0 33.6066 0C33.2051 0 32.82 0.159497 32.5361 0.443407C32.2522 0.727316 32.0927 1.11238 32.0927 1.51389V7.9782L26.4943 4.74756C26.1462 4.5468 25.7326 4.49255 25.3445 4.59675C24.9564 4.70094 24.6256 4.95504 24.4248 5.30315C24.2241 5.65126 24.1698 6.06486 24.274 6.45296C24.3782 6.84107 24.6323 7.17188 24.9804 7.37264L30.5758 10.6033L24.9804 13.8339C24.6323 14.0347 24.3782 14.3655 24.274 14.7536C24.1698 15.1417 24.2241 15.5553 24.4248 15.9034C24.6256 16.2515 24.9564 16.5056 25.3445 16.6098C25.7326 16.714 26.1462 16.6598 26.4943 16.459L32.0927 13.2193V19.6806ZM70.9936 19.4807C71.1659 19.5801 71.3562 19.6446 71.5535 19.6705C71.7508 19.6964 71.9512 19.6831 72.1434 19.6315C72.3356 19.5799 72.5157 19.491 72.6735 19.3698C72.8313 19.2486 72.9637 19.0975 73.0631 18.9251C73.1625 18.7528 73.227 18.5625 73.2528 18.3652C73.2787 18.1679 73.2655 17.9675 73.2139 17.7753C73.1623 17.5831 73.0733 17.403 72.9521 17.2452C72.8309 17.0874 72.6798 16.955 72.5075 16.8556L66.9121 13.625L72.5075 10.3944C72.8353 10.1837 73.0695 9.85492 73.1615 9.47623C73.2535 9.09754 73.1962 8.69798 73.0015 8.36039C72.8068 8.02281 72.4897 7.7731 72.1158 7.66304C71.742 7.55299 71.3401 7.59103 70.9936 7.76928L65.3982 11.0029V4.54167C65.3982 4.14016 65.2388 3.75509 64.9548 3.47118C64.6709 3.18728 64.2859 3.02778 63.8844 3.02778C63.4829 3.02778 63.0978 3.18728 62.8139 3.47118C62.53 3.75509 62.3705 4.14016 62.3705 4.54167V11.006L56.7721 7.77534C56.5997 7.67593 56.4095 7.61145 56.2122 7.58558C56.0149 7.5597 55.8145 7.57294 55.6223 7.62453C55.4301 7.67612 55.25 7.76506 55.0922 7.88626C54.9344 8.00747 54.802 8.15856 54.7026 8.33093C54.6032 8.50329 54.5387 8.69356 54.5129 8.89084C54.487 9.08813 54.5002 9.28857 54.5518 9.48074C54.6034 9.67291 54.6923 9.85304 54.8136 10.0108C54.9348 10.1686 55.0859 10.301 55.2582 10.4004L60.8536 13.6311L55.2582 16.8617C54.9101 17.0625 54.656 17.3933 54.5518 17.7814C54.4476 18.1695 54.5019 18.5831 54.7026 18.9312C54.9034 19.2793 55.2342 19.5334 55.6223 19.6376C56.0104 19.7418 56.424 19.6875 56.7721 19.4868L62.3705 16.2471V22.7083C62.3705 23.1098 62.53 23.4949 62.8139 23.7788C63.0978 24.0627 63.4829 24.2222 63.8844 24.2222C64.2859 24.2222 64.6709 24.0627 64.9548 23.7788C65.2388 23.4949 65.3982 23.1098 65.3982 22.7083V16.2501L70.9936 19.4807ZM102.785 13.8279L97.1899 10.5972L102.785 7.36659C103.113 7.15591 103.347 6.82715 103.439 6.44845C103.531 6.06976 103.474 5.6702 103.279 5.33262C103.085 4.99503 102.767 4.74532 102.394 4.63526C102.02 4.52521 101.618 4.56325 101.271 4.7415L95.676 7.97517V1.51389C95.676 1.11238 95.5165 0.727316 95.2326 0.443407C94.9487 0.159497 94.5636 0 94.1621 0C93.7606 0 93.3756 0.159497 93.0917 0.443407C92.8077 0.727316 92.6482 1.11238 92.6482 1.51389V7.9782L87.0499 4.74756C86.7018 4.5468 86.2882 4.49255 85.9001 4.59675C85.512 4.70094 85.1812 4.95504 84.9804 5.30315C84.7796 5.65126 84.7254 6.06486 84.8296 6.45296C84.9338 6.84107 85.1879 7.17188 85.536 7.37264L91.1313 10.6033L85.536 13.8339C85.1879 14.0347 84.9338 14.3655 84.8296 14.7536C84.7254 15.1417 84.7796 15.5553 84.9804 15.9034C85.1812 16.2515 85.512 16.5056 85.9001 16.6098C86.2882 16.714 86.7018 16.6598 87.0499 16.459L92.6482 13.2193V19.6806C92.6482 20.0821 92.8077 20.4671 93.0917 20.751C93.3756 21.0349 93.7606 21.1944 94.1621 21.1944C94.5636 21.1944 94.9487 21.0349 95.2326 20.751C95.5165 20.4671 95.676 20.0821 95.676 19.6806V13.2223L101.271 16.4529C101.618 16.6312 102.02 16.6692 102.394 16.5592C102.767 16.4491 103.085 16.1994 103.279 15.8618C103.474 15.5242 103.531 15.1247 103.439 14.746C103.347 14.3673 103.113 14.0385 102.785 13.8279ZM88.1974 29.5208C87.9967 29.1731 87.666 28.9194 87.2782 28.8155C86.8904 28.7116 86.4772 28.766 86.1294 28.9668L80.5371 32.1974V25.7361C80.5371 25.3346 80.3776 24.9495 80.0937 24.6656C79.8098 24.3817 79.4248 24.2222 79.0232 24.2222C78.6217 24.2222 78.2367 24.3817 77.9528 24.6656C77.6689 24.9495 77.5094 25.3346 77.5094 25.7361V32.2004L71.911 28.9698C71.5629 28.769 71.1493 28.7148 70.7612 28.819C70.3731 28.9232 70.0423 29.1773 69.8415 29.5254C69.6408 29.8735 69.5865 30.2871 69.6907 30.6752C69.7949 31.0633 70.049 31.3941 70.3971 31.5949L75.9924 34.8255L70.3971 38.0561C70.2247 38.1555 70.0736 38.2879 69.9524 38.4457C69.8312 38.6035 69.7423 38.7836 69.6907 38.9758C69.5865 39.3639 69.6408 39.7775 69.8415 40.1256C70.0423 40.4737 70.3731 40.7278 70.7612 40.832C71.1493 40.9362 71.5629 40.882 71.911 40.6812L77.5094 37.4415V43.9028C77.5094 44.3043 77.6689 44.6894 77.9528 44.9733C78.2367 45.2572 78.6217 45.4167 79.0232 45.4167C79.4248 45.4167 79.8098 45.2572 80.0937 44.9733C80.3776 44.6894 80.5371 44.3043 80.5371 43.9028V37.4445L86.1325 40.6752C86.3048 40.7746 86.4951 40.8391 86.6924 40.8649C86.8897 40.8908 87.0901 40.8776 87.2823 40.826C87.4745 40.7744 87.6546 40.6854 87.8124 40.5642C87.9702 40.443 88.1026 40.2919 88.202 40.1196C88.3014 39.9472 88.3658 39.757 88.3917 39.5597C88.4176 39.3624 88.4044 39.1619 88.3528 38.9698C88.3012 38.7776 88.2122 38.5975 88.091 38.4397C87.9698 38.2819 87.8187 38.1495 87.6464 38.0501L82.051 34.8194L87.6464 31.5888C87.9935 31.3875 88.2466 31.0567 88.3499 30.6689C88.4533 30.2811 88.3984 29.8682 88.1974 29.5208Z" fill="var(--fill-0, #5DADEC)"/>
</svg>

<svg xmlns="http://www.w3.org/2000/svg" fill="none" overflow="visible" preserveAspectRatio="none" style="display:block" viewBox="0 0 103.482 45.417"><path fill="var(--fill-0, #5dadec)" d="M18.559 17.41a1.514 1.514 0 0 0-2.068-.554l-5.593 3.23v-6.461a1.514 1.514 0 1 0-3.028 0v6.464l-5.598-3.23a1.515 1.515 0 1 0-1.514 2.625l5.596 3.224L.758 25.94a1.515 1.515 0 0 0 1.514 2.625L7.87 25.33v6.462a1.514 1.514 0 0 0 3.028 0v-6.459l5.596 3.231a1.516 1.516 0 0 0 1.514-2.625l-5.596-3.23 5.595-3.231a1.514 1.514 0 0 0 .551-2.068m30.277 12.11a1.514 1.514 0 0 0-2.068-.553l-5.592 3.23v-6.46a1.514 1.514 0 0 0-3.028 0V32.2l-5.598-3.23a1.515 1.515 0 1 0-1.514 2.625l5.595 3.23-5.595 3.231a1.515 1.515 0 1 0 1.514 2.625l5.598-3.24v6.462a1.514 1.514 0 0 0 3.028 0v-6.459l5.595 3.231a1.513 1.513 0 0 0 2.26-1.115 1.52 1.52 0 0 0-.746-1.51l-5.595-3.23 5.595-3.231a1.514 1.514 0 0 0 .551-2.068m-16.743-9.84a1.514 1.514 0 0 0 3.027 0v-6.458l5.596 3.23a1.516 1.516 0 0 0 1.514-2.624l-5.596-3.23 5.596-3.231a1.517 1.517 0 0 0-1.514-2.625L35.12 7.975V1.514a1.514 1.514 0 0 0-3.027 0v6.464l-5.599-3.23a1.515 1.515 0 1 0-1.514 2.625l5.596 3.23-5.596 3.23a1.515 1.515 0 0 0 1.514 2.626l5.599-3.24zm38.9-.2a1.515 1.515 0 1 0 1.514-2.624l-5.595-3.231 5.595-3.23a1.517 1.517 0 0 0-1.513-2.626l-5.596 3.234V4.542a1.514 1.514 0 1 0-3.027 0v6.464l-5.599-3.23a1.515 1.515 0 1 0-1.514 2.624l5.596 3.231-5.596 3.23a1.515 1.515 0 0 0 1.514 2.626l5.599-3.24v6.461a1.514 1.514 0 0 0 3.027 0V16.25zm31.792-5.652-5.595-3.23 5.595-3.231a1.516 1.516 0 0 0-1.514-2.625l-5.595 3.233V1.514a1.514 1.514 0 0 0-3.028 0v6.464l-5.598-3.23a1.515 1.515 0 1 0-1.514 2.625l5.595 3.23-5.595 3.23a1.515 1.515 0 0 0 1.514 2.626l5.598-3.24v6.462a1.513 1.513 0 1 0 3.028 0v-6.459l5.595 3.23a1.52 1.52 0 0 0 2.008-.59 1.515 1.515 0 0 0-.494-2.034M88.197 29.52a1.514 1.514 0 0 0-2.068-.554l-5.592 3.23v-6.46a1.514 1.514 0 0 0-3.028 0V32.2l-5.598-3.23a1.515 1.515 0 1 0-1.514 2.625l5.595 3.23-5.595 3.231a1.515 1.515 0 1 0 1.514 2.625l5.598-3.24v6.462a1.514 1.514 0 0 0 3.028 0v-6.459l5.595 3.231a1.513 1.513 0 0 0 2.26-1.115 1.51 1.51 0 0 0-.746-1.51l-5.595-3.23 5.595-3.231a1.514 1.514 0 0 0 .551-2.068"/></svg>
